X: 34390
T: Richard Brennan's
R: jig
M: 6/8
K: Dmajor
|:B,|A,2F FEF|FAF FEF|DFA dAF|~E3 EDB,|
A,2F FEF|FAF FEF|DFA dAF|DCE D2:|
|:g|fdf ece|~d3 AFD|fdf ece|dfb a2g|
fdf ece|~d3 AFD|DFA dAF|DCE D2:|

